logo/redsmin.svg

<?xml version="1.0" encoding="UTF-8" standalone="no"?>
<svg width="256px" height="344px" viewBox="0 0 256 344" version="1.1" xmlns="http://www.w3.org/2000/svg" xmlns:xlink="http://www.w3.org/1999/xlink" preserveAspectRatio="xMidYMid">
	<g>
		<path d="M0,324.4331 C0,335.2411 8.761,344.0001 19.567,344.0001 C30.373,344.0001 39.134,335.2411 39.134,324.4331 L39.134,196.6911 L38.229,196.3621 L0.327,218.7441 L0,219.8011 L0,324.4331 Z" fill="#EE3A43"></path>
		<path d="M0,83.7621 L0,219.8011 L39.134,196.6911 L39.134,94.9611 L39.148,94.5511 L3.168,73.7361 L2.7,73.8691 C0.967,76.8221 0,80.2211 0,83.7621" fill="#CF3239"></path>
		<path d="M117.9269,3.297 L9.6569,66.889 C6.7279,68.61 4.3619,71.035 2.6999,73.869 L39.1339,94.961 L127.9489,42.796 L128.6979,41.581 L128.6979,1.439 L127.9489,0.619 C124.4769,0.595 121.0239,1.479 117.9269,3.297" fill="#AF272B"></path>
		<path d="M245.5227,65.1601 L137.5777,3.1991 C134.6017,1.4921 131.2647,0.6421 127.9497,0.6191 L127.9497,42.7961 L216.2737,93.4941 L216.8447,93.6461 L253.7567,75.2891 L253.9217,74.8431 C252.3077,70.8271 249.3967,67.3841 245.5227,65.1601" fill="#7A1313"></path>
		<path d="M255.9997,204.6469 L255.3477,82.0269 C255.3347,79.5219 254.8257,77.0949 253.9207,74.8429 L216.2737,93.4939 L216.2827,193.6439 L216.4267,194.3779 L250.6937,217.2129 L251.5367,217.1339 C254.3827,213.6609 256.0237,209.2759 255.9997,204.6469" fill="#AF272B"></path>
		<path d="M251.5365,217.1335 L216.2825,193.6445 L118.7435,250.8035 C118.6705,250.8465 167.3665,268.4515 167.3665,268.4515 L246.2515,221.6405 C248.2425,220.4595 250.1125,218.8705 251.5365,217.1335" fill="#CF3239"></path>
		<path d="M228.8354,343.8739 C225.6384,343.8739 222.3974,343.0909 219.4014,341.4359 L117.9614,285.4789 C108.4994,280.2589 105.0594,268.3579 110.2794,258.8959 C115.4964,249.4329 127.4044,245.9859 136.8634,251.2139 L238.3034,307.1709 C247.7664,312.3909 251.2054,324.2919 245.9854,333.7539 C242.4194,340.2199 235.7314,343.8739 228.8354,343.8739" fill="#EE3A43"></path>
		<g transform="translate(82.000000, 96.000000)">
			<path d="M45.4768,48.6336 L86.4008,24.5136 L86.6428,23.7946 C84.6508,20.8226 82.0238,18.2626 78.8198,16.4126 L57.4228,4.0596 C50.0608,-0.1914 40.9908,-0.1914 33.6298,4.0596 L12.2318,16.4126 C9.0668,18.2406 6.4658,20.7606 4.4818,23.6856 L4.6618,24.5136 L45.4768,48.6336 Z" fill="#CF3239"></path>
			<path d="M78.8198,82.3314 C82.9528,79.9454 86.1498,76.4004 88.1988,72.2654 L87.9578,71.5224 L46.3148,47.7034 L45.4398,47.8094 L44.2278,47.8784 L3.0488,72.1424 L3.0968,72.7594 C5.1548,76.6814 8.2638,80.0404 12.2318,82.3314 L33.6298,94.6854 C40.9908,98.9354 50.0608,98.9354 57.4228,94.6854 L78.8198,82.3314 Z" fill="#7A1313"></path>
			<path d="M4.4787,23.6896 C1.8497,27.5666 0.3357,32.1746 0.3357,37.0186 L0.3357,61.7256 C0.3357,65.6526 1.3407,69.4226 3.1077,72.7816 L45.4407,47.8086 L4.4787,23.6896 Z" fill="#AF272B"></path>
			<path d="M88.201,72.2615 C89.8,69.0325 90.716,65.4525 90.716,61.7255 L90.716,37.0185 C90.716,32.2195 89.229,27.6535 86.646,23.7985 L45.44,47.8095 L88.201,72.2615 Z" fill="#EE3A43"></path>
		</g>
	</g>
</svg>

<svg viewBox="0 0 256 344" xmlns="http://www.w3.org/2000/svg"><path fill="#EE3A43" d="M0 324.43c0 10.8 8.761 19.56 19.567 19.56 10.8 0 19.567-8.76 19.567-19.57V196.67l-.91-.33L.31 218.72l-.33 1.05V324.4Z"/><path fill="#CF3239" d="M0 83.76V219.79l39.134-23.11V94.95l.01-.41L3.16 73.72l-.47.13C.96 76.8-.01 80.2-.01 83.75"/><path fill="#AF272B" d="M117.92 3.29L9.65 66.882c-2.93 1.72-5.3 4.14-6.96 6.98l36.43 21.09 88.815-52.17 .74-1.22V1.41l-.75-.82c-3.48-.03-6.93.86-10.03 2.678"/><path fill="#7A1313" d="M245.52 65.16L137.57 3.19c-2.98-1.71-6.32-2.56-9.628-2.58v42.17l88.32 50.69 .57.15 36.91-18.357 .16-.45c-1.62-4.02-4.53-7.46-8.4-9.69"/><path fill="#AF272B" d="M255.99 204.64l-.66-122.62c-.02-2.51-.53-4.94-1.43-7.19l-37.65 18.65 0 100.15 .14.73 34.26 22.83 .84-.08c2.84-3.48 4.48-7.86 4.46-12.49"/><path fill="#CF3239" d="M251.53 217.13l-35.26-23.49 -97.539 57.15c-.08.04 48.62 17.64 48.62 17.64l78.88-46.82c1.99-1.19 3.86-2.77 5.28-4.51"/><path fill="#EE3A43" d="M228.83 343.87c-3.2 0-6.44-.79-9.44-2.44l-101.44-55.96c-9.47-5.22-12.91-17.13-7.69-26.59 5.21-9.47 17.12-12.91 26.58-7.69l101.44 55.95c9.46 5.22 12.9 17.12 7.68 26.58 -3.57 6.46-10.26 10.12-17.15 10.12"/><g transform="translate(82 96)"><path fill="#CF3239" d="M45.47 48.63l40.92-24.12 .24-.72c-2-2.98-4.619-5.54-7.83-7.39L57.4 4.04C50.03-.22 40.96-.22 33.607 4.04l-21.4 12.35c-3.17 1.82-5.77 4.34-7.75 7.273l.18.82 40.815 24.12Z"/><path fill="#7A1313" d="M78.81 82.33c4.13-2.39 7.33-5.94 9.37-10.07l-.25-.75 -41.65-23.82 -.88.1 -1.22.06L3 72.11l.04.61C5.09 76.64 8.2 80 12.17 82.29l21.39 12.35c7.36 4.25 16.43 4.25 23.793 0l21.397-12.36Z"/><path fill="#AF272B" d="M4.47 23.68C1.84 27.55.32 32.165.32 37.009v24.7c0 3.92 1 7.69 2.77 11.05l42.33-24.98L4.45 23.66Z"/><path fill="#EE3A43" d="M88.2 72.26c1.59-3.23 2.51-6.81 2.51-10.54V37.01c0-4.8-1.49-9.37-4.07-13.22L45.43 47.8l42.76 24.45Z"/></g></svg>
